assets/Woman gesturing no/Medium-Dark/Flat/woman_gesturing_no_flat_medium-dark.svg

<svg width="32" height="32" viewBox="0 0 32 32" fill="none" xmlns="http://www.w3.org/2000/svg">
<path d="M25.5 12.7675C25.5 13.4077 25.3592 14.0222 25.0903 14.5728C25.0007 14.752 25.0007 14.9697 25.0903 15.1489C25.3464 15.6867 25.5 16.2884 25.5 16.9286C25.5 19.1819 23.6819 21 21.4286 21H10.5714C8.31806 21 6.5 19.1819 6.5 16.9286C6.5 16.2884 6.65364 15.6867 6.9097 15.1489C6.99933 14.9697 6.99933 14.752 6.9097 14.5728C6.65364 14.0222 6.5 13.4205 6.5 12.7675C6.5 11.9117 6.75488 11.1323 7.18834 10.4676L7.19124 10.4629C7.62655 9.79717 7.85701 9.01617 7.85701 8.22237V8.20957C7.85701 5.94095 9.6684 4.09417 11.9233 4.03708C11.959 4.03617 11.9949 4.03572 12.0309 4.03571C12.2613 4.03571 12.479 3.92049 12.607 3.74124C13.3624 2.69137 14.6043 2 15.9999 2C17.3954 2 18.6375 2.69137 19.3929 3.74124C19.5209 3.93329 19.7385 4.03571 19.969 4.03571C22.2736 4.03571 24.1429 5.90499 24.1429 8.20957V8.22237C24.1429 9.01617 24.3733 9.79717 24.8086 10.4629L24.8112 10.4669C24.9508 10.6706 25.0652 10.8869 25.167 11.1159H25.1602C25.3784 11.6216 25.5 12.1763 25.5 12.7675Z" fill="#2D242D"/>
<path d="M24 13C24 14.1046 23.1046 15 22 15C20.8954 15 20 14.1046 20 13C20 11.8954 20.8954 11 22 11C23.1046 11 24 11.8954 24 13Z" fill="#8B5C56"/>
<path d="M12 13C12 14.1046 11.1046 15 10 15C8.89543 15 8 14.1046 8 13C8 11.8954 8.89543 11 10 11C11.1046 11 12 11.8954 12 13Z" fill="#8B5C56"/>
<path d="M9.76147 11.1106H9.77515L9.76258 10.7836L9.75 10.4063C9.77515 9.23681 10.4542 8.7841 10.7435 8.63319C10.7623 8.62691 10.7843 8.61747 10.8063 8.60804C10.8283 8.59861 10.8504 8.58918 10.8692 8.58289C11.5231 8.28108 12.0513 7.75291 12.328 7.06126L12.4286 6.82233C12.5292 6.58339 12.8436 6.54567 12.9945 6.75945C13.8747 8.05472 15.3461 8.82183 16.9054 8.82183H20.8541C21.0805 8.82183 22.2374 8.935 22.25 10.5824L22.2374 11.1106L22.1195 14.0199C21.968 17.4555 19.2804 19.7625 15.9997 19.7625C12.7189 19.7625 10.0313 17.4555 9.87986 14.0199L9.76147 11.1106Z" fill="#966661"/>
<path d="M16.05 19C16.8785 19 17.55 18.3284 17.55 17.5C17.55 16.6716 16.8785 16 16.05 16C15.2216 16 14.55 16.6716 14.55 17.5C14.55 18.3284 15.2216 19 16.05 19Z" fill="#990838"/>
<path d="M15.54 12.3375L14.91 14.3775C14.78 14.7975 15.09 15.2175 15.53 15.2175H16.47C16.91 15.2175 17.22 14.7975 17.09 14.3775L16.46 12.3375C16.32 11.8875 15.68 11.8875 15.54 12.3375Z" fill="#75443E"/>
<path d="M12.76 10.99C13.46 10.99 14.03 11.48 14.39 12.02C14.1009 12.1084 13.8176 12.1899 13.5365 12.2708C12.9912 12.4276 12.4543 12.582 11.9 12.78L11.3 12.24C11.05 12.02 11.07 11.62 11.34 11.43C11.74 11.14 12.26 10.99 12.76 10.99Z" fill="black"/>
<path d="M19.27 10.99C18.57 10.99 18 11.48 17.64 12.02C17.9143 12.1029 18.1826 12.1798 18.4476 12.2557C19.0134 12.4178 19.5648 12.5757 20.13 12.78L20.73 12.24C20.98 12.02 20.96 11.62 20.69 11.43C20.29 11.14 19.77 10.99 19.27 10.99Z" fill="black"/>
<path d="M11.29 12.43C11.48 11.67 12.17 11.11 12.98 11.11C13.82 11.11 14.53 11.72 14.68 12.51C14.72 12.69 14.58 12.85 14.4 12.85H11.62C11.4 12.85 11.24 12.65 11.29 12.43Z" fill="white"/>
<path d="M20.75 12.43C20.56 11.67 19.87 11.11 19.06 11.11C18.21 11.11 17.51 11.72 17.36 12.51C17.32 12.69 17.46 12.85 17.64 12.85H20.42C20.64 12.85 20.8 12.65 20.75 12.43Z" fill="white"/>
<path d="M12.12 12.56C12.12 11.95 12.62 11.45 13.23 11.45C13.85 11.45 14.35 11.94 14.34 12.56C14.34 12.67 14.33 12.77 14.3 12.86H12.16C12.13 12.76 12.12 12.66 12.12 12.56Z" fill="#7D4533"/>
<path d="M19.9101 12.56C19.9101 11.95 19.4101 11.45 18.8001 11.45C18.1901 11.45 17.6901 11.94 17.6901 12.56C17.6901 12.67 17.7001 12.77 17.7301 12.86H19.8701C19.9001 12.76 19.9101 12.66 19.9101 12.56Z" fill="#7D4533"/>
<path d="M13.23 11.92C13.59 11.92 13.87 12.21 13.87 12.56C13.87 12.66 13.84 12.77 13.79 12.86H12.66C12.62 12.77 12.59 12.67 12.59 12.56C12.59 12.2 12.88 11.92 13.23 11.92Z" fill="black"/>
<path d="M18.81 11.92C18.45 11.92 18.17 12.21 18.17 12.56C18.17 12.66 18.19 12.77 18.25 12.86H19.38C19.42 12.77 19.45 12.67 19.45 12.56C19.45 12.2 19.16 11.92 18.81 11.92Z" fill="black"/>
<path d="M18.42 12.32C18.5304 12.32 18.62 12.2305 18.62 12.12C18.62 12.0095 18.5304 11.92 18.42 11.92C18.3095 11.92 18.22 12.0095 18.22 12.12C18.22 12.2305 18.3095 12.32 18.42 12.32Z" fill="white"/>
<path d="M12.85 12.32C12.9605 12.32 13.05 12.2305 13.05 12.12C13.05 12.0095 12.9605 11.92 12.85 11.92C12.7396 11.92 12.65 12.0095 12.65 12.12C12.65 12.2305 12.7396 12.32 12.85 12.32Z" fill="white"/>
<path d="M11.26 10.0243C11.29 10.1843 11.43 10.2943 11.59 10.2943C11.599 10.2943 11.608 10.2923 11.6179 10.2901C11.63 10.2873 11.6435 10.2843 11.66 10.2843C11.66 10.2843 12.73 10.0743 13.79 9.91431C13.97 9.88431 14.1 9.71431 14.07 9.53431C14.04 9.35431 13.87 9.22431 13.69 9.25431C12.61 9.41431 11.53 9.62431 11.53 9.62431C11.34 9.66431 11.23 9.83431 11.26 10.0243Z" fill="#372128"/>
<path d="M20.35 10.2843C20.37 10.2943 20.39 10.2943 20.41 10.2943C20.57 10.2943 20.71 10.1743 20.74 10.0143C20.77 9.83431 20.65 9.65431 20.47 9.62431C20.47 9.62431 19.49 9.44431 18.32 9.25431C18.14 9.22431 17.97 9.35431 17.94 9.53431C17.91 9.71431 18.04 9.88431 18.22 9.91431C19.38 10.1043 20.35 10.2843 20.35 10.2843Z" fill="#372128"/>
<path d="M25.4993 30H6.49068C5.6603 30 5 29.3293 5 28.5085V24.1742C5 21.8719 6.87085 20 9.1719 20H22.8281C25.1291 20 27 21.8719 27 24.1742V28.5085C26.99 29.3293 26.3197 30 25.4993 30Z" fill="#633589"/>
<path d="M6.81006 20.57L9.08996 21.63L11.2 17.11L8.97 16.06L6.81006 20.57Z" fill="#A17FD5"/>
<path d="M11.5598 16.0984L26.9669 23.2758C28.728 24.1025 29.4928 26.1993 28.6676 27.9634C27.8424 29.7275 25.7492 30.4936 23.9881 29.667L8.58104 22.4795C8.07787 22.2476 7.85648 21.6428 8.098 21.1387L10.2214 16.5722C10.4528 16.0782 11.0566 15.8564 11.5598 16.0984Z" fill="#8B62BF"/>
<path d="M25.19 20.57L22.9099 21.63L20.7999 17.11L23.06 16.04L25.19 20.57Z" fill="#8B62BF"/>
<path d="M20.4402 16.0985L5.03313 23.271C3.27203 24.0982 2.50721 26.1965 3.33241 27.9619C4.15761 29.7273 6.2508 30.494 8.01189 29.6668L23.419 22.4841C23.9221 22.2521 24.1435 21.6468 23.902 21.1424L21.7786 16.5726C21.5472 16.0783 20.9434 15.8563 20.4402 16.0985Z" fill="#A17FD5"/>
<path d="M25.83 20.23L28.9 18.44C29.16 18.29 29.32 18.01 29.32 17.7C29.32 17.14 28.79 16.73 28.25 16.87L26.05 17.44L25.83 20.23Z" fill="#8B5C56"/>
<path d="M6.17004 20.23L3.10004 18.43C2.83004 18.28 2.67004 18 2.67004 17.7C2.67004 17.14 3.20004 16.73 3.74004 16.87L5.94004 17.44L6.17004 20.23Z" fill="#8B5C56"/>
<path d="M23 16.07L28.62 13.01C29.24 12.67 30 13.12 30 13.83C30 14.1 29.88 14.36 29.67 14.54L28.16 15.84C27.86 16.14 27.65 16.52 27.57 16.94L27.28 18.33C27.11 19.15 26.58 19.84 25.84 20.23L25.12 20.61L23 16.07Z" fill="#966661"/>
<path d="M9 16.07L3.38 13.01C2.76 12.67 2 13.12 2 13.83C2 14.1 2.12 14.36 2.33 14.54L3.84 15.84C4.14 16.14 4.35 16.52 4.43 16.94L4.72 18.33C4.89 19.15 5.42 19.84 6.16 20.23L6.88 20.61L9 16.07Z" fill="#966661"/>
</svg>

<svg xmlns="http://www.w3.org/2000/svg" width="32" height="32" fill="none"><path fill="#2D242D" d="M25.5 12.768c0 .64-.14 1.254-.41 1.805a.651.651 0 0 0 0 .576c.256.538.41 1.14.41 1.78A4.065 4.065 0 0 1 21.429 21H10.57A4.065 4.065 0 0 1 6.5 16.929c0-.64.154-1.242.41-1.78a.65.65 0 0 0 0-.576 4.174 4.174 0 0 1 .279-4.105l.002-.005a4.098 4.098 0 0 0 .666-2.24V8.21a4.175 4.175 0 0 1 4.174-4.174c.23 0 .448-.116.576-.295A4.182 4.182 0 0 1 16 2c1.395 0 2.637.691 3.393 1.741a.682.682 0 0 0 .576.295 4.175 4.175 0 0 1 4.174 4.174v.012c0 .794.23 1.575.666 2.24l.002.005c.14.204.254.42.356.649h-.007c.218.506.34 1.06.34 1.652Z"/><path fill="#8B5C56" d="M24 13a2 2 0 1 1-4 0 2 2 0 0 1 4 0ZM12 13a2 2 0 1 1-4 0 2 2 0 0 1 4 0Z"/><path fill="#966661" d="M9.761 11.11h.014l-.012-.326-.013-.378c.025-1.17.704-1.622.993-1.773.02-.006.041-.016.063-.025a2.834 2.834 0 0 0 1.522-1.547l.1-.239a.323.323 0 0 1 .566-.063 4.73 4.73 0 0 0 3.911 2.063h3.95c.226 0 1.382.113 1.395 1.76l-.013.529-.117 2.909c-.152 3.436-2.84 5.742-6.12 5.742-3.281 0-5.969-2.306-6.12-5.742l-.119-2.91Z"/><path fill="#990838" d="M16.05 19a1.5 1.5 0 1 0 0-3 1.5 1.5 0 0 0 0 3Z"/><path fill="#75443E" d="m15.54 12.338-.63 2.04c-.13.42.18.84.62.84h.94c.44 0 .75-.42.62-.84l-.63-2.04c-.14-.45-.78-.45-.92 0Z"/><path fill="#000" d="M12.76 10.99c.7 0 1.27.49 1.63 1.03-.29.088-.572.17-.854.25a26.71 26.71 0 0 0-1.636.51l-.6-.54a.519.519 0 0 1 .04-.81c.4-.29.92-.44 1.42-.44ZM19.27 10.99c-.7 0-1.27.49-1.63 1.03.274.083.543.16.808.236.565.162 1.117.32 1.682.524l.6-.54c.25-.22.23-.62-.04-.81-.4-.29-.92-.44-1.42-.44Z"/><path fill="#fff" d="M11.29 12.43c.19-.76.88-1.32 1.69-1.32.84 0 1.55.61 1.7 1.4.04.18-.1.34-.28.34h-2.78c-.22 0-.38-.2-.33-.42ZM20.75 12.43c-.19-.76-.88-1.32-1.69-1.32-.85 0-1.55.61-1.7 1.4-.04.18.1.34.28.34h2.78c.22 0 .38-.2.33-.42Z"/><path fill="#7D4533" d="M12.12 12.56c0-.61.5-1.11 1.11-1.11.62 0 1.12.49 1.11 1.11 0 .11-.01.21-.04.3h-2.14c-.03-.1-.04-.2-.04-.3ZM19.91 12.56c0-.61-.5-1.11-1.11-1.11-.61 0-1.11.49-1.11 1.11 0 .11.01.21.04.3h2.14c.03-.1.04-.2.04-.3Z"/><path fill="#000" d="M13.23 11.92c.36 0 .64.29.64.64 0 .1-.03.21-.08.3h-1.13a.735.735 0 0 1-.07-.3c0-.36.29-.64.64-.64ZM18.81 11.92c-.36 0-.64.29-.64.64 0 .1.02.21.08.3h1.13c.04-.09.07-.19.07-.3 0-.36-.29-.64-.64-.64Z"/><path fill="#fff" d="M18.42 12.32a.2.2 0 1 0 0-.4.2.2 0 0 0 0 .4ZM12.85 12.32a.2.2 0 1 0 0-.4.2.2 0 0 0 0 .4Z"/><path fill="#372128" d="M11.26 10.024c.03.16.17.27.33.27.009 0 .018-.002.028-.004a.178.178 0 0 1 .042-.006s1.07-.21 2.13-.37c.18-.03.31-.2.28-.38a.336.336 0 0 0-.38-.28c-1.08.16-2.16.37-2.16.37-.19.04-.3.21-.27.4ZM20.35 10.284c.02.01.04.01.06.01.16 0 .3-.12.33-.28a.339.339 0 0 0-.27-.39s-.98-.18-2.15-.37c-.18-.03-.35.1-.38.28-.03.18.1.35.28.38 1.16.19 2.13.37 2.13.37Z"/><path fill="#633589" d="M25.5 30H6.49C5.66 30 5 29.33 5 28.509v-4.335A4.177 4.177 0 0 1 9.172 20h13.656A4.177 4.177 0 0 1 27 24.174v4.335A1.51 1.51 0 0 1 25.5 30Z"/><path fill="#A17FD5" d="m6.81 20.57 2.28 1.06 2.11-4.52-2.23-1.05-2.16 4.51Z"/><path fill="#8B62BF" d="m11.56 16.098 15.407 7.178a3.529 3.529 0 0 1 1.7 4.687 3.518 3.518 0 0 1-4.679 1.704L8.581 22.479a1.003 1.003 0 0 1-.483-1.34l2.123-4.567a1.004 1.004 0 0 1 1.339-.474Z"/><path fill="#8B62BF" d="m25.19 20.57-2.28 1.06-2.11-4.52 2.26-1.07 2.13 4.53Z"/><path fill="#A17FD5" d="M20.44 16.099 5.033 23.27a3.532 3.532 0 0 0-1.7 4.69 3.516 3.516 0 0 0 4.679 1.706l15.407-7.183c.503-.232.724-.837.483-1.342l-2.123-4.57a1.003 1.003 0 0 0-1.339-.473Z"/><path fill="#8B5C56" d="m25.83 20.23 3.07-1.79c.26-.15.42-.43.42-.74 0-.56-.53-.97-1.07-.83l-2.2.57-.22 2.79ZM6.17 20.23l-3.07-1.8a.833.833 0 0 1-.43-.73c0-.56.53-.97 1.07-.83l2.2.57.23 2.79Z"/><path fill="#966661" d="m23 16.07 5.62-3.06a.933.933 0 0 1 1.05 1.53l-1.51 1.3c-.3.3-.51.68-.59 1.1l-.29 1.39c-.17.82-.7 1.51-1.44 1.9l-.72.38L23 16.07ZM9 16.07l-5.62-3.06a.933.933 0 0 0-1.05 1.53l1.51 1.3c.3.3.51.68.59 1.1l.29 1.39c.17.82.7 1.51 1.44 1.9l.72.38L9 16.07Z"/></svg>
